X:1
T:Whiskey Before Breakfast
L:1/8
M:4/4
I:linebreak $
K:D
V:1 treble
V:1
 "D"D2 F2 A4 | ABAG FDEF |"G" G2 BG"D" F2 AF |"Em" EDEF "A7"E4 |"D" D2 F2 A4 |$
 ABAG FDEF |"G" G2 BG "D"F2 AF |"A7"  EDEF "D"D4 :: "D"DFAB d2 AB | dBAG F D3 |"E7" e4 e3 f |$
 "A7"gfed cABc |"D" d2 fd "A7"c2 ec |"G" BABc "D"BAFD |"G"  G2 BG "D"F2 AF |"A7" EDEF "D"D4 :|
